X: 11553
T: MIRELETON
O: Very Ancient.
Q: "Moderate."
%R: air, reel
B: W. Hamilton "Universal Tune-Book" Vol. 1 Glasgow 1844 p.155 #3
S: http://imslp.org/wiki/Hamilton's_Universal_Tune-Book_(Various)
Z: 2016 John Chambers <jc:trillian.mit.edu>
M: C
L: 1/8
K: C
% - - - - - - - - - - - - - - - - - - - - - - - - -
[|\
gfed e3d | c2G2 gfed |\
e3d c2z2 | cBcd e3f |\
g2g2 fefg | a2g2 g2z2 |\
gfef g2ef | g2fe d2d2 |\
gfed e2d2 | c6 z2 |]
% - - - - - - - - - - - - - - - - - - - - - - - - -

%%sep 1 1 500
%%sep 1 1 500

